src/topics/icons/material-ui.svg

<svg height="208" preserveAspectRatio="xMidYMid" viewBox="0 0 256 208" width="256" xmlns="http://www.w3.org/2000/svg"><path d="m15.6235294 35.0117647v87.5294113l15.0588235-8.470588v-70.5882351z" fill="#949494"/><path d="m.56470588 114.070588v-105.41176447l89.41176472 50.82352937v17.882353l-74.3529412-42.3529412v87.5294113z" fill="#efefef"/><path d="m181.270588 8.65882353v105.41176447l-60.235294 33.882353-15.058823-9.411765 60.235294-33.882352v-70.5882358l-76.2352944 43.2941177v-17.882353z" fill="#949494"/><path d="m166.211765.18823529-75.2941179 42.35294121-75.2941177-42.35294121-15.05882352 8.47058824 89.41176472 50.82352937 91.2941174-50.82352937z" fill="#d6d6d6"/><path d="m151.152941 42.5411765v53.6470588l15.058824 8.4705887v-70.5882358z" fill="#efefef"/><path d="m75.8588235 138.541176 75.2941175-42.3529407 15.058824 8.4705887-60.235294 33.882352 59.294117 33.882353 60.235294-33.882353 15.058824 8.470589-75.294118 42.352941z" fill="#d6d6d6"/><path d="m75.8588235 138.541176v17.882353l89.4117645 50.82353v-17.882353z" fill="#efefef"/><path d="m240.564706 147.011765v-52.7058826l-15.058824-8.4705883v52.7058819z" fill="#efefef"/><path d="m165.270588 189.364706 75.294118-42.352941v-52.7058826l15.058823-8.4705883v70.5882349l-90.352941 50.82353z" fill="#949494"/><path d="m255.623529 85.8352941-15.058823 8.4705883-15.058824-8.4705883 15.058824-8.4705882z" fill="#d6d6d6"/><path d="m240.564706 77.3647059v-17.882353l15.058823-8.4705882v17.8823529z" fill="#949494"/><path d="m240.564706 59.4823529v17.882353l-15.058824-8.4705883v-17.8823529z" fill="#efefef"/><path d="m255.623529 51.0117647-15.058823 8.4705882-15.058824-8.4705882 15.058824-8.4705882z" fill="#d6d6d6"/></svg>

<?xml version="1.0" encoding="UTF-8" standalone="no"?>
<svg width="256px" height="208px" viewBox="0 0 256 208" version="1.1" xmlns="http://www.w3.org/2000/svg" xmlns:xlink="http://www.w3.org/1999/xlink" preserveAspectRatio="xMidYMid">
	<g>
		<path d="M15.6235294,35.0117647 L15.6235294,122.541176 L30.6823529,114.070588 L30.6823529,43.4823529 L15.6235294,35.0117647 Z" fill="#949494"></path>
		<path d="M0.564705882,114.070588 L0.564705882,8.65882353 L89.9764706,59.4823529 L89.9764706,77.3647059 L15.6235294,35.0117647 L15.6235294,122.541176 L0.564705882,114.070588 Z" fill="#EFEFEF"></path>
		<path d="M181.270588,8.65882353 L181.270588,114.070588 L121.035294,147.952941 L105.976471,138.541176 L166.211765,104.658824 L166.211765,34.0705882 L89.9764706,77.3647059 L89.9764706,59.4823529 L181.270588,8.65882353 Z" fill="#949494"></path>
		<path d="M166.211765,0.188235294 L90.9176471,42.5411765 L15.6235294,0.188235294 L0.564705882,8.65882353 L89.9764706,59.4823529 L181.270588,8.65882353 L166.211765,0.188235294 Z" fill="#D6D6D6"></path>
		<path d="M151.152941,42.5411765 L151.152941,96.1882353 L166.211765,104.658824 L166.211765,34.0705882 L151.152941,42.5411765 Z" fill="#EFEFEF"></path>
		<path d="M75.8588235,138.541176 L151.152941,96.1882353 L166.211765,104.658824 L105.976471,138.541176 L165.270588,172.423529 L225.505882,138.541176 L240.564706,147.011765 L165.270588,189.364706 L75.8588235,138.541176 Z" fill="#D6D6D6"></path>
		<path d="M75.8588235,138.541176 L75.8588235,156.423529 L165.270588,207.247059 L165.270588,189.364706 L75.8588235,138.541176 Z" fill="#EFEFEF"></path>
		<path d="M240.564706,147.011765 L240.564706,94.3058824 L225.505882,85.8352941 L225.505882,138.541176 L240.564706,147.011765 Z" fill="#EFEFEF"></path>
		<path d="M165.270588,189.364706 L240.564706,147.011765 L240.564706,94.3058824 L255.623529,85.8352941 L255.623529,156.423529 L165.270588,207.247059 L165.270588,189.364706 Z" fill="#949494"></path>
		<path d="M255.623529,85.8352941 L240.564706,94.3058824 L225.505882,85.8352941 L240.564706,77.3647059 L255.623529,85.8352941 Z" fill="#D6D6D6"></path>
		<path d="M240.564706,77.3647059 L240.564706,59.4823529 L255.623529,51.0117647 L255.623529,68.8941176 L240.564706,77.3647059 Z" fill="#949494"></path>
		<path d="M240.564706,59.4823529 L240.564706,77.3647059 L225.505882,68.8941176 L225.505882,51.0117647 L240.564706,59.4823529 Z" fill="#EFEFEF"></path>
		<path d="M255.623529,51.0117647 L240.564706,59.4823529 L225.505882,51.0117647 L240.564706,42.5411765 L255.623529,51.0117647 Z" fill="#D6D6D6"></path>
	</g>
</svg>
